X:1
T:Title
%%score { ( 1 4 ) | ( 2 3 5 ) }
L:1/8
Q:1/4=94
M:4/4
K:Ab
V:1 treble nm="Grand Piano"
V:4 treble 
V:2 bass 
V:3 bass 
V:5 bass 
V:1
 [CEA]2 [CE]2 [CAc]2 [CA][FA] |[M:9/8] [FBd]2 [EAc] [EGB] [EAc]2 [EGB]3 | %2
w: Franz~Schubert * * * *||
[M:4/4] [=EGc]2 [CEB][CEB] [CFA]2 [=DFB]2 |[M:5/4] [B,EG]2 [A,=DF][A,DF] [G,E]6 | %4
w: ||
[M:4/4] [CEA]2 [CE]2 [CAc]2 [CA][FA] |[M:9/8] [FBd]2 [EAc] [EGB] [EAc]2 [EGB]3 | %6
w: ||
[M:4/4] [=EGc]2 [CEB][CEB] [CFA]2 [=DFB]2 |[M:5/4] [B,EG]2 [A,=DF][A,DF] E6 |[M:4/4] G2 FE E2 AA | %9
w: |||
 A2 [GB][Ac] [Ac]2 B2 | [=EGc]2 [EGc][EGc] [CFA]2 [CEG][CEG] |[M:5/4] [CFA]2 [FB][FB] [=EGc]6 | %12
w: |||
[M:4/4] z4 f2 z2 | [Ac]2 [GB]2 [CA]4 | G2 FE E2 AA | A2 [GB][Ac] [Ac]2 B2 | %16
w: ||||
 [=EGc]2 [EGc][EGc] [CFA]2 [CEG][CEG] |[M:5/4] [CFA]2 [FB][FB] [=EGc]6 |[M:4/4] z4 f2 z2 | %19
w: |||
 [Ac]2 z2 z4 | _G2- [G-B][GA] f-[Af]A-[DAd] | [Ac]2 z2 z4 |] %22
w: |||
V:2
 A,2 A,2 F,2 F,F, |[M:9/8] B,,2 E, E, A,2 E,3 |[M:4/4] C,2 C,C, F,2 B,,2 |[M:5/4] E,2 B,,B,, E,6 | %4
[M:4/4] A,2 A,2 F,2 F,F, |[M:9/8] B,,2 E, E, A,2 E,3 |[M:4/4] C,2 C,C, F,2 B,,2 | %7
[M:5/4] E,2 B,,B,, [E,G,]6 |[M:4/4] [E,B,D]2 [E,A,D][E,G,D] [E,A,C]2 [E,A,C][E,B,D] | %9
 [E,CE]2 [E,B,][E,A,] z2 G2 | C,2 C,C, F,2 C,C, |[M:5/4] F,2 D,D, C,6 | %12
[M:4/4] A,2 A,A, [D,D]2 [E,C][F,D] | E3 D A,,4 | [E,B,D]2 [E,A,D][E,G,D] [E,A,C]2 [E,A,C][E,B,D] | %15
 [E,CE]2 [E,B,][E,A,] z2 G2 | C,2 C,C, F,2 C,C, |[M:5/4] F,2 D,D, C,6 | %18
[M:4/4] A,2 G,A, [D,D]2 [E,C]F, | z2[K:treble] G2[K:bass] z4 | z2 DC [D,D]2 [E,C]F, | %21
 z2[K:treble] G2[K:bass] z4 |] %22
V:3
 x8 |[M:9/8] x9 |[M:4/4] x8 |[M:5/4] x10 |[M:4/4] x8 |[M:9/8] x9 |[M:4/4] x8 |[M:5/4] x10 | %8
[M:4/4] x8 | z4 [E,E]4 | x8 |[M:5/4] x10 |[M:4/4] x8 | E,4 z4 | x8 | z4 [E,E]4 | x8 |[M:5/4] x10 | %18
[M:4/4] x8 | z2[K:treble] z D[K:bass] A,,4 | A,4 z4 | z2[K:treble] z D[K:bass] A,,4 |] %22
V:4
 x8 |[M:9/8] x9 |[M:4/4] x8 |[M:5/4] x10 |[M:4/4] x8 |[M:9/8] x9 |[M:4/4] x8 |[M:5/4] x10 | %8
[M:4/4] x8 | x8 | x8 |[M:5/4] x10 |[M:4/4] [E_Gc]2 [DGB][CGA] FA[Ae][Ad] | x8 | x8 | x8 | x8 | %17
[M:5/4] x10 |[M:4/4] [E_Gc]2 [DGB][CGA] FA[Ae][DAd] | E2- [EB]2 [CA]4 | [Ec]2 z2 .F2 .e2 | %21
 E2- [EB]2 [CA]4 |] %22
V:5
 x8 |[M:9/8] x9 |[M:4/4] x8 |[M:5/4] x10 |[M:4/4] x8 |[M:9/8] x9 |[M:4/4] x8 |[M:5/4] x10 | %8
[M:4/4] x8 | x8 | x8 |[M:5/4] x10 |[M:4/4] x8 | x8 | x8 | x8 | x8 |[M:5/4] x10 |[M:4/4] x8 | %19
 E,4[K:treble][K:bass] z4 | x8 | E,4[K:treble][K:bass] z4 |] %22

